!!!OTL: WENN DER SCHAEFER SCHEREN WILL
!!!ARE: Europa, Mitteleuropa, Deutschland, Halberstadt
!!!SCT: E1488
!!!YEM: Copyright 1995, estate of Helmut Schaffrath.
**kern
*ICvox
*Ivox
*M4/4
*k[f#]
*G:
=1
{8g
8a
8b
8cc
4dd
4dd
=2
4ee
4ee
4dd
4r}
=3
{4cc
8cc
8cc
4b
8b
8b
=4
2a
4g
4r}
=5
{8g
8a
8b
8cc
4dd
4dd
=6
4ee
4ee
4dd
4r}
=7
{4cc
8cc
8cc
4b
8b
8b
=8
2a
4g}
{4g
=9
4.b
8b
4b
4cc
=10
2b
4a}
{4g
=11
4.b
8b
4b
4cc
=12
2b
4a
4r}
=13
{8g
8a
8b
8cc
4dd
4dd
=14
4ee
4ee
4dd
4r}
=15
{4cc
8cc
8cc
4b
8b
8b
=16
2a
4g
4r}
==
!!!AGN: Staende - Lied, Hirten -,  Schaefer - Lied
!!!ONB: ESAC (Essen Associative Code) Database: ERK3
!!!AMT: simple quadruple
!!!AIN: vox
!!!EED: Helmut Schaffrath
!!!EEV: 1.0
*-
